svg/300/outlined/location_searching-fill.svg

<svg xmlns="http://www.w3.org/2000/svg" width="48" height="48" viewBox="0 -960 960 960"><path d="M457.308-70.002v-65.769q-133.923-12.846-220.307-99.23-86.384-86.384-99.23-220.307H72.002v-45.384h65.769q12.846-133.923 99.23-220.307 86.384-86.384 220.307-99.615v-65.384h45.384v65.384q133.923 13.231 220.307 99.615 86.384 86.384 99.615 220.307h65.384v45.384h-65.384q-13.231 133.923-99.615 220.307-86.384 86.384-220.307 99.23v65.769h-45.384ZM480-180.54q122.692 0 210.077-87.384Q777.461-355.308 777.461-478t-87.384-210.077Q602.692-775.461 480-775.461t-210.077 87.384Q182.539-600.692 182.539-478t87.384 210.077Q357.308-180.539 480-180.539Z"/></svg>

<svg xmlns="http://www.w3.org/2000/svg" width="48" height="48" viewBox="0 -960 960 960"><path d="M457.31-70v-65.77Q323.39-148.62 237-235q-86.38-86.39-99.23-220.31H72v-45.38h65.77Q150.62-634.61 237-721q86.39-86.38 220.31-99.61V-886h45.38v65.39Q636.61-807.38 723-721q86.38 86.39 99.61 220.31H888v45.38h-65.39Q809.38-321.39 723-235q-86.39 86.38-220.31 99.23V-70h-45.38ZM480-180.54q122.69 0 210.08-87.38 87.38-87.39 87.38-210.08 0-122.69-87.38-210.08-87.39-87.38-210.08-87.38-122.69 0-210.08 87.38-87.38 87.39-87.38 210.08 0 122.69 87.38 210.08 87.39 87.38 210.08 87.38Z"/></svg>
